src/assets/Illustrations/framework.svg

<svg xmlns="http://www.w3.org/2000/svg" style="isolation:isolate" viewBox="89 135 692 489.92" width="692pt" height="653.227"><defs><clipPath id="a"><path d="M89 135h692v489.92H89z"/></clipPath></defs><g clip-path="url(#a)"><path d="M219.142 505.073l22.01 13.216 27.109-16.279-49.119-29.487v32.55z" fill="#ED69B7"/><path d="M190.181 472.523l-49.12 29.487 27.109 16.279 22.011-13.216v-32.55z" fill="#C84696"/><path d="M321.46 611.975l-6.075-22.675a4.828 4.828 0 00-9.325 2.498l3.228 12.049-99.8-60.737V431.479l8.36 8.36a4.812 4.812 0 003.413 1.414 4.827 4.827 0 003.413-8.24l-16.6-16.6a4.81 4.81 0 00-3.412-1.413 4.812 4.812 0 00-3.413 1.413l-16.6 16.6a4.827 4.827 0 106.826 6.826l8.36-8.36V543.11l-98.24 59.775 2.971-11.088a4.826 4.826 0 10-9.325-2.498l-6.076 22.675a4.824 4.824 0 003.134 5.822c.082.031.173.061.28.089l22.675 6.076a4.83 4.83 0 005.912-3.414 4.825 4.825 0 00-3.413-5.911l-11.733-3.144 98.641-60.021 99.027 60.267-10.815 2.898a4.826 4.826 0 00-3.413 5.911 4.83 4.83 0 005.912 3.414l22.676-6.076c.121-.032.223-.067.315-.102a4.82 4.82 0 003.097-5.808z" fill="#FF9650"/><path d="M248.657 555.646l24.153 14.699v-59.809l-24.153 14.504v30.606z" fill="#ED69B7"/><path d="M209.488 592.369v32.551l48.974-29.403-26.926-16.387-22.048 13.239zm-58.634 3.145l48.98 29.406v-32.551l-22.052-13.241-26.928 16.386z" fill="#A41F76"/><path d="M160.664 525.04l-24.152-14.504v59.803l24.152-14.696V525.04zm9.654 24.729l19.863-12.086v-21.349l-19.526 11.723-.337.205v21.507z" fill="#C84696"/><path d="M219.142 537.683l19.862 12.088v-21.509l-.338-.205-19.524-11.723v21.349z" fill="#ED69B7"/><path d="M204.66 562.774l-17.562 10.686 17.563 10.546 17.561-10.545-17.562-10.687z" fill="#A41F76"/><path d="M496.102 155.513c-13.47-13.369-31.337-20.646-50.33-20.511-38.545.289-70.008 31.887-70.137 70.437-.062 18.707 7.114 36.364 20.208 49.717 12.036 12.276 18.665 28.465 18.665 45.59v10.826c0 7.352 5.088 13.535 11.927 15.222v2.448c0 8.644 7.033 15.678 15.678 15.678h8.4c8.645 0 15.678-7.034 15.678-15.678v-2.448c6.84-1.686 11.927-7.87 11.927-15.222v-10.826c0-17.011 6.7-33.523 18.381-45.301 13.215-13.325 20.492-31 20.492-49.767.001-18.978-7.418-36.794-20.889-50.165zm-45.589 180.572h-8.4a6.851 6.851 0 01-6.843-6.843v-1.991h22.087v1.991c-.001 3.773-3.071 6.843-6.844 6.843zm18.771-24.513a6.852 6.852 0 01-6.844 6.844h-32.254c-3.773 0-6.843-3.071-6.843-6.844v-6.408h45.941v6.408zm20.942-62.348c-12.292 12.394-19.743 29.361-20.809 47.105h-9.852v-33.831l6.175-7.986a4.419 4.419 0 00-.792-6.197 4.42 4.42 0 00-6.197.793l-7.098 9.179a4.42 4.42 0 00-.923 2.702v35.339h-8.834v-35.339c0-.977-.325-1.928-.923-2.702l-18.554-23.994a4.417 4.417 0 00-6.989 5.404l17.631 22.801v33.83h-9.849c-1.049-17.803-8.434-34.479-21.061-47.357-11.457-11.685-17.736-27.134-17.681-43.503.112-33.731 27.641-61.379 61.368-61.631 16.606-.11 32.254 6.249 44.04 17.947 11.787 11.699 18.279 27.287 18.279 43.894 0 16.422-6.368 31.886-17.931 43.546z" fill="#008BCF"/><path d="M476.402 233.5a4.417 4.417 0 00-6.196.793l-.112.146a4.417 4.417 0 106.989 5.403l.113-.145a4.417 4.417 0 00-.794-6.197zm12.694-36.413l-20.081-17.169a4.418 4.418 0 00-5.742 6.715l16.155 13.812-16.155 13.811a4.418 4.418 0 005.741 6.715l20.082-17.168a4.416 4.416 0 000-6.716zm-58.372-16.682a4.417 4.417 0 00-6.228-.487l-20.082 17.169a4.416 4.416 0 000 6.715l20.082 17.169a4.401 4.401 0 002.868 1.059 4.417 4.417 0 002.873-7.774l-16.155-13.812 16.155-13.812a4.417 4.417 0 00.487-6.227zm22.035-8.132a4.42 4.42 0 00-5.242 3.4l-10.166 47.702a4.418 4.418 0 008.641 1.841l10.166-47.702a4.417 4.417 0 00-3.399-5.241z" fill="#00AA96"/><path d="M769.321 502.985a94.55 94.55 0 00-4.041-15.056l10.121-5.843-16.935-29.332-10.138 5.853a96.063 96.063 0 00-11.011-11.012l5.853-10.137-29.333-16.936-5.842 10.121a94.722 94.722 0 00-15.06-4.044V414.92h-33.87v11.679a94.55 94.55 0 00-15.056 4.041l-5.843-10.121-29.332 16.935 5.853 10.138a96.063 96.063 0 00-11.012 11.011l-10.141-5.849-16.935 29.332 10.121 5.843a94.87 94.87 0 00-4.041 15.056H571v33.87h11.679a94.55 94.55 0 004.041 15.056l-10.121 5.843 16.935 29.332 10.138-5.853a96.063 96.063 0 0011.011 11.012l-5.853 10.137 29.333 16.936 5.842-10.121a94.55 94.55 0 0015.056 4.041v11.682h33.871v-11.679a94.55 94.55 0 0015.056-4.041l5.842 10.121 29.333-16.935-5.853-10.138a96.054 96.054 0 0011.011-11.011l10.138 5.853 16.935-29.333-10.12-5.842a94.763 94.763 0 004.041-15.056H781v-33.874h-11.679zm4.905 27.096h-10.7l-.43 2.893a87.5 87.5 0 01-5.152 19.195l-1.067 2.716 9.267 5.348-10.161 17.596-9.281-5.355-1.819 2.28a88.685 88.685 0 01-14.046 14.046l-2.279 1.819 5.355 9.281-17.596 10.161-5.352-9.267-2.716 1.067a87.608 87.608 0 01-19.195 5.151l-2.893.434v10.7h-20.322v-10.7l-2.893-.43a87.5 87.5 0 01-19.195-5.152l-2.716-1.067-5.352 9.267-17.596-10.161 5.355-9.281-2.279-1.819a88.643 88.643 0 01-14.046-14.046l-1.819-2.279-9.281 5.355-10.161-17.596 9.267-5.352-1.067-2.716a87.666 87.666 0 01-5.152-19.195l-.43-2.893h-10.7v-20.322h10.7l.43-2.893a87.5 87.5 0 015.152-19.195l1.067-2.716-9.267-5.352 10.161-17.596 9.281 5.355 1.819-2.279a88.643 88.643 0 0114.046-14.046l2.279-1.819-5.355-9.281 17.596-10.161 5.352 9.267 2.716-1.067a87.666 87.666 0 0119.195-5.152l2.893-.43v-10.7h20.322v10.7l2.893.43a87.5 87.5 0 0119.195 5.152l2.716 1.067 5.352-9.267 17.596 10.161-5.355 9.281 2.279 1.819a88.643 88.643 0 0114.046 14.046l1.819 2.279 9.281-5.355 10.161 17.596-9.267 5.352 1.067 2.716a87.666 87.666 0 015.152 19.195l.43 2.893h10.7v20.322z" fill="#C0004F"/><path fill="#00AA96" d="M672.613 570.726h6.774v6.774h-6.774zm0 27.097h6.774v6.774h-6.774z"/><path d="M611.645 487.238v72.142l60.968 27.1v4.569h6.774v-4.573l60.968-27.1v-72.138L676 458.634l-64.355 28.604zm84.678 32.682c0 6.622-3.259 12.854-8.712 16.668l-1.45 1.009v6.033h-6.774v-14.172c3.933-1.402 6.774-5.128 6.774-9.538 0-5.602-4.559-10.161-10.161-10.161-5.602 0-10.161 4.559-10.161 10.161 0 4.41 2.841 8.136 6.774 9.538v14.172h-6.774v-6.033l-1.45-1.009c-5.453-3.814-8.712-10.046-8.712-16.668 0-11.208 9.115-20.323 20.323-20.323s20.323 9.115 20.323 20.323zm-10.162 30.484v6.774h-20.322v-6.774h20.322zm-13.548-30.484a3.388 3.388 0 116.776.002 3.388 3.388 0 01-6.776-.002zm0-52.368v25.505c-7.293.914-13.681 4.735-17.989 10.266l-31.253-13.887 49.242-21.884zm60.968 87.428L676 580.566l-57.581-25.59v-60.327l32.71 14.537a26.97 26.97 0 00-2.226 10.734c0 8.234 3.767 16.004 10.162 21.135v2.575h-6.775v6.774h6.775v13.548h33.87v-13.548h6.775v-6.774h-6.775v-2.575c6.395-5.134 10.162-12.904 10.162-21.135 0-3.81-.8-7.438-2.226-10.734l32.71-14.537v60.331zm-54.194-87.428l49.242 21.884-31.253 13.891c-4.308-5.535-10.696-9.352-17.989-10.27v-25.505z" fill="#008BCF"/><linearGradient id="b" x1=".5" y1="1" x2=".5" y2="0" gradientTransform="rotate(135 261.41 322.16) scale(102.87699 188.609)" gradientUnits="userSpaceOnUse"><stop offset="1.739%" stop-color="#f3665b"/><stop offset="99.13%" stop-color="#ffc754"/></linearGradient><path d="M623.048 334.806v39.924L516.441 268.123a8.573 8.573 0 10-12.124 12.124l106.607 106.607H571a8.544 8.544 0 00-6.062 2.511A8.573 8.573 0 00571 404h60.621a8.573 8.573 0 008.573-8.573v-60.621a8.574 8.574 0 00-17.146 0z" fill="url(#b)"/><linearGradient id="c" x1=".5" y1="1" x2=".5" y2="0" gradientTransform="matrix(0 -102.877 188.609 0 340.391 577)" gradientUnits="userSpaceOnUse"><stop offset="1.304%" stop-color="#ffc754"/><stop offset="98.696%" stop-color="#a41f76"/></linearGradient><path d="M397.892 562.365l-28.231-28.231h150.766a8.573 8.573 0 008.573-8.573 8.573 8.573 0 00-8.573-8.573H369.661l28.231-28.231a8.543 8.543 0 002.511-6.062 8.542 8.542 0 00-2.511-6.061 8.573 8.573 0 00-12.124 0l-42.866 42.865a8.573 8.573 0 000 12.124l42.866 42.866a8.573 8.573 0 1012.124-12.124z" fill="url(#c)"/><linearGradient id="d" x1=".5" y1="1" x2=".5" y2="0" gradientTransform="rotate(45 -124.65 527.87) scale(102.87699 188.609)" gradientUnits="userSpaceOnUse"><stop offset="1.304%" stop-color="#a41f76"/><stop offset="98.696%" stop-color="#f3665b"/></linearGradient><path d="M306.44 293.757h39.925L239.757 400.365a8.573 8.573 0 1012.124 12.124l106.608-106.607v39.924a8.543 8.543 0 002.51 6.062 8.573 8.573 0 0014.635-6.062v-60.622a8.573 8.573 0 00-8.573-8.573H306.44a8.574 8.574 0 000 17.146z" fill="url(#d)"/></g></svg>

<?xml version="1.0" encoding="UTF-8" standalone="no"?><!-- Generator: Gravit.io --><svg xmlns="http://www.w3.org/2000/svg" xmlns:xlink="http://www.w3.org/1999/xlink" style="isolation:isolate" viewBox="89 135 692 489.92" width="692pt" height="489.92pt"><defs><clipPath id="_clipPath_BTyxotZ5f3NoyvgNzeAMOXtkMDIlwk5J"><rect x="89" y="135" width="692" height="489.92"/></clipPath></defs><g clip-path="url(#_clipPath_BTyxotZ5f3NoyvgNzeAMOXtkMDIlwk5J)"><g><g><g><path d=" M 219.142 505.073 L 241.152 518.289 L 268.261 502.01 L 219.142 472.523 L 219.142 505.073 Z " fill="rgb(237,105,183)"/><path d=" M 190.181 472.523 L 141.061 502.01 L 168.17 518.289 L 190.181 505.073 L 190.181 472.523 Z " fill="rgb(200,70,150)"/><path d=" M 321.46 611.975 L 315.385 589.3 C 314.694 586.724 312.051 585.198 309.473 585.886 C 306.898 586.577 305.37 589.223 306.06 591.798 L 309.288 603.847 L 209.488 543.11 L 209.488 431.479 L 217.848 439.839 C 218.79 440.781 220.025 441.253 221.261 441.253 C 222.496 441.253 223.732 440.781 224.674 439.839 C 226.559 437.954 226.559 434.898 224.674 433.013 L 208.074 416.413 C 207.132 415.471 205.897 415 204.662 415 C 203.427 415 202.191 415.471 201.249 416.413 L 184.649 433.013 C 182.764 434.898 182.764 437.954 184.649 439.839 C 185.592 440.781 186.827 441.253 188.062 441.253 C 189.297 441.253 190.533 440.781 191.475 439.839 L 199.835 431.479 L 199.835 543.11 L 101.595 602.885 L 104.566 591.797 C 105.256 589.222 103.728 586.576 101.153 585.886 C 98.579 585.197 95.931 586.724 95.241 589.299 L 89.165 611.974 C 88.501 614.454 89.896 616.994 92.299 617.796 C 92.381 617.827 92.472 617.857 92.579 617.885 L 115.254 623.961 C 115.673 624.073 116.093 624.127 116.507 624.127 C 118.638 624.127 120.588 622.704 121.166 620.547 C 121.857 617.972 120.328 615.326 117.753 614.636 L 106.02 611.492 L 204.661 551.471 L 303.688 611.738 L 292.873 614.636 C 290.298 615.326 288.77 617.972 289.46 620.547 C 290.038 622.704 291.988 624.127 294.12 624.127 C 294.533 624.127 294.954 624.073 295.372 623.961 L 318.048 617.885 C 318.169 617.853 318.271 617.818 318.363 617.783 C 320.744 616.97 322.121 614.441 321.46 611.975 Z " fill="rgb(255,150,80)"/><path d=" M 248.657 555.646 L 272.81 570.345 L 272.81 510.536 L 248.657 525.04 L 248.657 555.646 Z " fill="rgb(237,105,183)"/><path d=" M 209.488 592.369 L 209.488 624.92 L 258.462 595.517 L 231.536 579.13 L 209.488 592.369 Z " fill="rgb(164,31,118)"/><path d=" M 150.854 595.514 L 199.834 624.92 L 199.834 592.369 L 177.782 579.128 L 150.854 595.514 Z " fill="rgb(164,31,118)"/><path d=" M 160.664 525.04 L 136.512 510.536 L 136.512 570.339 L 160.664 555.643 L 160.664 525.04 Z " fill="rgb(200,70,150)"/><path d=" M 170.318 549.769 L 190.181 537.683 L 190.181 516.334 L 170.655 528.057 L 170.318 528.262 L 170.318 549.769 Z " fill="rgb(200,70,150)"/><path d=" M 219.142 537.683 L 239.004 549.771 L 239.004 528.262 L 238.666 528.057 L 219.142 516.334 L 219.142 537.683 Z " fill="rgb(237,105,183)"/><path d=" M 204.66 562.774 L 187.098 573.46 L 204.661 584.006 L 222.222 573.461 L 204.66 562.774 Z " fill="rgb(164,31,118)"/></g></g><g><g><g><g><path d=" M 496.102 155.513 C 482.632 142.144 464.765 134.867 445.772 135.002 C 407.227 135.291 375.764 166.889 375.635 205.439 C 375.573 224.146 382.749 241.803 395.843 255.156 C 407.879 267.432 414.508 283.621 414.508 300.746 L 414.508 311.572 C 414.508 318.924 419.596 325.107 426.435 326.794 L 426.435 329.242 C 426.435 337.886 433.468 344.92 442.113 344.92 L 450.513 344.92 C 459.158 344.92 466.191 337.886 466.191 329.242 L 466.191 326.794 C 473.031 325.108 478.118 318.924 478.118 311.572 L 478.118 300.746 C 478.118 283.735 484.818 267.223 496.499 255.445 C 509.714 242.12 516.991 224.445 516.991 205.678 C 516.992 186.7 509.573 168.884 496.102 155.513 Z  M 450.513 336.085 L 442.113 336.085 C 438.34 336.085 435.27 333.015 435.27 329.242 L 435.27 327.251 L 457.357 327.251 L 457.357 329.242 L 457.357 329.242 C 457.356 333.015 454.286 336.085 450.513 336.085 Z  M 469.284 311.572 C 469.284 315.345 466.214 318.416 462.44 318.416 L 430.186 318.416 C 426.413 318.416 423.343 315.345 423.343 311.572 L 423.343 305.164 L 469.284 305.164 L 469.284 311.572 L 469.284 311.572 Z  M 490.226 249.224 C 477.934 261.618 470.483 278.585 469.417 296.329 L 459.565 296.329 L 459.565 262.498 L 465.74 254.512 C 467.232 252.582 466.877 249.808 464.948 248.315 C 463.018 246.824 460.244 247.178 458.751 249.108 L 451.653 258.287 C 451.055 259.061 450.73 260.011 450.73 260.989 L 450.73 296.328 L 441.896 296.328 L 441.896 260.989 C 441.896 260.012 441.571 259.061 440.973 258.287 L 422.419 234.293 C 420.927 232.363 418.153 232.009 416.223 233.501 C 414.293 234.993 413.938 237.767 415.43 239.697 L 433.061 262.498 L 433.061 296.328 L 423.212 296.328 C 422.163 278.525 414.778 261.849 402.151 248.971 C 390.694 237.286 384.415 221.837 384.47 205.468 C 384.582 171.737 412.111 144.089 445.838 143.837 C 462.444 143.727 478.092 150.086 489.878 161.784 C 501.665 173.483 508.157 189.071 508.157 205.678 C 508.157 222.1 501.789 237.564 490.226 249.224 Z " fill="rgb(0,139,207)"/><path d=" M 476.402 233.5 C 474.472 232.008 471.698 232.363 470.206 234.293 L 470.094 234.439 C 468.602 236.369 468.957 239.143 470.887 240.635 C 471.692 241.257 472.642 241.558 473.585 241.558 C 474.906 241.558 476.213 240.968 477.083 239.842 L 477.196 239.697 C 478.688 237.767 478.333 234.993 476.402 233.5 Z " fill="rgb(0,170,150)"/><path d=" M 489.096 197.087 L 469.015 179.918 C 467.161 178.333 464.372 178.551 462.786 180.405 C 461.201 182.259 461.419 185.048 463.273 186.633 L 479.428 200.445 L 463.273 214.256 C 461.419 215.842 461.201 218.63 462.786 220.484 C 463.66 221.506 464.899 222.031 466.146 222.031 C 467.161 222.031 468.182 221.683 469.014 220.971 L 489.096 203.803 C 490.078 202.964 490.643 201.737 490.643 200.445 C 490.643 199.154 490.078 197.926 489.096 197.087 Z " fill="rgb(0,170,150)"/><path d=" M 430.724 180.405 C 429.138 178.551 426.349 178.332 424.496 179.918 L 404.414 197.087 C 403.432 197.926 402.867 199.153 402.867 200.444 C 402.867 201.736 403.432 202.963 404.414 203.802 L 424.496 220.971 C 425.328 221.682 426.349 222.03 427.364 222.03 C 428.61 222.03 429.85 221.506 430.724 220.483 C 432.309 218.629 432.091 215.841 430.237 214.256 L 414.082 200.444 L 430.237 186.632 C 432.091 185.048 432.309 182.26 430.724 180.405 Z " fill="rgb(0,170,150)"/><path d=" M 452.759 172.273 C 450.373 171.766 448.026 173.287 447.517 175.673 L 437.351 223.375 C 436.843 225.761 438.365 228.107 440.751 228.616 C 441.061 228.682 441.371 228.714 441.676 228.714 C 443.717 228.714 445.55 227.292 445.992 225.216 L 456.158 177.514 C 456.667 175.128 455.145 172.782 452.759 172.273 Z " fill="rgb(0,170,150)"/></g></g></g></g><g><g><g><g><path d=" M 769.321 502.985 C 768.4 497.894 767.045 492.854 765.28 487.929 L 775.401 482.086 L 758.466 452.754 L 748.328 458.607 C 744.965 454.647 741.276 450.959 737.317 447.595 L 743.17 437.458 L 713.837 420.522 L 707.995 430.643 C 703.066 428.875 698.026 427.523 692.935 426.599 L 692.935 414.92 L 659.065 414.92 L 659.065 426.599 C 653.974 427.52 648.934 428.875 644.009 430.64 L 638.166 420.519 L 608.834 437.454 L 614.687 447.592 C 610.727 450.955 607.039 454.644 603.675 458.603 L 593.534 452.754 L 576.599 482.086 L 586.72 487.929 C 584.955 492.854 583.603 497.894 582.679 502.985 L 571 502.985 L 571 536.855 L 582.679 536.855 C 583.6 541.946 584.955 546.986 586.72 551.911 L 576.599 557.754 L 593.534 587.086 L 603.672 581.233 C 607.035 585.193 610.724 588.881 614.683 592.245 L 608.83 602.382 L 638.163 619.318 L 644.005 609.197 C 648.93 610.962 653.97 612.317 659.061 613.238 L 659.061 624.92 L 692.932 624.92 L 692.932 613.241 C 698.023 612.32 703.063 610.965 707.988 609.2 L 713.83 619.321 L 743.163 602.386 L 737.31 592.248 C 741.269 588.885 744.958 585.196 748.321 581.237 L 758.459 587.09 L 775.394 557.757 L 765.274 551.915 C 767.038 546.99 768.393 541.95 769.315 536.859 L 781 536.859 L 781 536.855 L 781 502.985 L 769.321 502.985 Z  M 774.226 530.081 L 763.526 530.081 L 763.096 532.974 C 762.13 539.487 760.396 545.943 757.944 552.169 L 756.877 554.885 L 766.144 560.233 L 755.983 577.829 L 746.702 572.474 L 744.883 574.754 C 740.748 579.939 736.023 584.668 730.837 588.8 L 728.558 590.619 L 733.913 599.9 L 716.317 610.061 L 710.965 600.794 L 708.249 601.861 C 702.023 604.313 695.567 606.044 689.054 607.012 L 686.161 607.446 L 686.161 618.146 L 665.839 618.146 L 665.839 607.446 L 662.946 607.016 C 656.433 606.05 649.977 604.316 643.751 601.864 L 641.035 600.797 L 635.683 610.064 L 618.087 599.903 L 623.442 590.622 L 621.163 588.803 C 615.977 584.668 611.249 579.943 607.117 574.757 L 605.298 572.478 L 596.017 577.833 L 585.856 560.237 L 595.123 554.885 L 594.056 552.169 C 591.604 545.943 589.873 539.487 588.904 532.974 L 588.474 530.081 L 577.774 530.081 L 577.774 509.759 L 588.474 509.759 L 588.904 506.866 C 589.87 500.353 591.604 493.897 594.056 487.671 L 595.123 484.955 L 585.856 479.603 L 596.017 462.007 L 605.298 467.362 L 607.117 465.083 C 611.252 459.897 615.977 455.169 621.163 451.037 L 623.442 449.218 L 618.087 439.937 L 635.683 429.776 L 641.035 439.043 L 643.751 437.976 C 649.977 435.524 656.433 433.793 662.946 432.824 L 665.839 432.394 L 665.839 421.694 L 686.161 421.694 L 686.161 432.394 L 689.054 432.824 C 695.567 433.79 702.023 435.524 708.249 437.976 L 710.965 439.043 L 716.317 429.776 L 733.913 439.937 L 728.558 449.218 L 730.837 451.037 C 736.023 455.172 740.751 459.897 744.883 465.083 L 746.702 467.362 L 755.983 462.007 L 766.144 479.603 L 756.877 484.955 L 757.944 487.671 C 760.396 493.897 762.127 500.353 763.096 506.866 L 763.526 509.759 L 774.226 509.759 L 774.226 530.081 Z " fill="rgb(192,0,79)"/><rect x="672.613" y="570.726" width="6.774" height="6.774" transform="matrix(1,0,0,1,0,0)" fill="rgb(0,170,150)"/><rect x="672.613" y="597.823" width="6.774" height="6.774" transform="matrix(1,0,0,1,0,0)" fill="rgb(0,170,150)"/><path d=" M 611.645 487.238 L 611.645 559.38 L 672.613 586.48 L 672.613 591.049 L 679.387 591.049 L 679.387 586.476 L 740.355 559.376 L 740.355 487.238 L 676 458.634 L 611.645 487.238 Z  M 696.323 519.92 C 696.323 526.542 693.064 532.774 687.611 536.588 L 686.161 537.597 L 686.161 543.63 L 679.387 543.63 L 679.387 529.458 C 683.32 528.056 686.161 524.33 686.161 519.92 C 686.161 514.318 681.602 509.759 676 509.759 C 670.398 509.759 665.839 514.318 665.839 519.92 C 665.839 524.33 668.68 528.056 672.613 529.458 L 672.613 543.63 L 665.839 543.63 L 665.839 537.597 L 664.389 536.588 C 658.936 532.774 655.677 526.542 655.677 519.92 C 655.677 508.712 664.792 499.597 676 499.597 C 687.208 499.597 696.323 508.712 696.323 519.92 Z  M 686.161 550.404 L 686.161 557.178 L 665.839 557.178 L 665.839 550.404 L 686.161 550.404 Z  M 672.613 519.92 C 672.613 518.05 674.13 516.533 676 516.533 C 677.87 516.533 679.387 518.05 679.387 519.92 C 679.387 521.79 677.87 523.307 676 523.307 C 674.13 523.307 672.613 521.79 672.613 519.92 Z  M 672.613 467.552 L 672.613 493.057 C 665.32 493.971 658.932 497.792 654.624 503.323 L 623.371 489.436 L 672.613 467.552 Z  M 733.581 554.98 L 676 580.566 L 618.419 554.976 L 618.419 494.649 L 651.129 509.186 C 649.703 512.482 648.903 516.11 648.903 519.92 C 648.903 528.154 652.67 535.924 659.065 541.055 L 659.065 543.63 L 652.29 543.63 L 652.29 550.404 L 659.065 550.404 L 659.065 563.952 L 692.935 563.952 L 692.935 550.404 L 699.71 550.404 L 699.71 543.63 L 692.935 543.63 L 692.935 541.055 C 699.33 535.921 703.097 528.151 703.097 519.92 C 703.097 516.11 702.297 512.482 700.871 509.186 L 733.581 494.649 L 733.581 554.98 Z  M 679.387 467.552 L 728.629 489.436 L 697.376 503.327 C 693.068 497.792 686.68 493.975 679.387 493.057 L 679.387 467.552 L 679.387 467.552 Z " fill="rgb(0,139,207)"/></g></g></g></g><g><linearGradient id="_lgradient_11" x1="0.5" y1="1.0000000000000009" x2="0.5000000000000007" y2="0" gradientTransform="matrix(-72.745,72.745,-133.367,-133.367,674.056,365.116)" gradientUnits="userSpaceOnUse"><stop offset="1.7391304347826086%" stop-opacity="1" style="stop-color:rgb(243,102,91)"/><stop offset="99.1304347826087%" stop-opacity="1" style="stop-color:rgb(255,199,84)"/></linearGradient><path d=" M 623.048 334.806 L 623.048 374.73 L 516.441 268.123 C 513.093 264.775 507.665 264.775 504.317 268.123 C 500.969 271.471 500.969 276.899 504.317 280.247 L 610.924 386.854 L 571 386.854 C 568.633 386.854 566.489 387.813 564.938 389.365 C 563.386 390.916 562.427 393.06 562.427 395.427 C 562.427 400.161 566.265 404 571 404 L 631.621 404 C 636.356 404 640.194 400.162 640.194 395.427 L 640.194 334.806 C 640.195 330.071 636.356 326.233 631.621 326.233 C 626.887 326.233 623.048 330.072 623.048 334.806 Z " fill="url(#_lgradient_11)"/></g><g><linearGradient id="_lgradient_12" x1="0.5" y1="1.0000000000000009" x2="0.49999999999999983" y2="4.440892098500626e-16" gradientTransform="matrix(0,-102.877,188.609,0,340.391,577)" gradientUnits="userSpaceOnUse"><stop offset="1.3043478260869565%" stop-opacity="1" style="stop-color:rgb(255,199,84)"/><stop offset="98.69565217391305%" stop-opacity="1" style="stop-color:rgb(164,31,118)"/></linearGradient><path d=" M 397.892 562.365 L 369.661 534.134 L 520.427 534.134 C 525.162 534.134 529 530.296 529 525.561 C 529 520.826 525.162 516.988 520.427 516.988 L 369.661 516.988 L 397.892 488.757 C 399.566 487.084 400.403 484.89 400.403 482.695 C 400.403 480.501 399.566 478.307 397.892 476.634 C 394.544 473.286 389.116 473.286 385.768 476.634 L 342.902 519.499 C 339.554 522.847 339.554 528.275 342.902 531.623 L 385.768 574.489 C 389.115 577.837 394.544 577.837 397.892 574.489 C 401.239 571.141 401.239 565.712 397.892 562.365 Z " fill="url(#_lgradient_12)"/></g><g><linearGradient id="_lgradient_13" x1="0.5" y1="0.9999999999999998" x2="0.49999999999999895" y2="0" gradientTransform="matrix(72.745,72.745,-133.367,133.367,336.751,242.75)" gradientUnits="userSpaceOnUse"><stop offset="1.3043478260869565%" stop-opacity="1" style="stop-color:rgb(164,31,118)"/><stop offset="98.69565217391305%" stop-opacity="1" style="stop-color:rgb(243,102,91)"/></linearGradient><path d=" M 306.44 293.757 L 346.365 293.757 L 239.757 400.365 C 236.409 403.713 236.409 409.141 239.757 412.489 C 243.105 415.837 248.533 415.837 251.881 412.489 L 358.489 305.882 L 358.489 345.806 C 358.488 348.173 359.448 350.317 360.999 351.868 C 362.551 353.42 364.694 354.379 367.061 354.379 C 371.796 354.379 375.634 350.54 375.634 345.806 L 375.634 285.184 C 375.635 280.45 371.796 276.611 367.061 276.611 L 306.44 276.611 C 301.706 276.611 297.867 280.45 297.867 285.184 C 297.868 289.919 301.706 293.757 306.44 293.757 Z " fill="url(#_lgradient_13)"/></g></g></g></svg>
